X: 13159
T: First Of August
R: reel
M: 4/4
K: Ddorian
|:D2FD GGFG|GFAF GFDC|D2FD GGFG|GFDC DCA,C|
D2FD GGFG|GFAF GFAc|dccA AGFA|1 GGGA GFDC:|2 GGGA GFAc||
|:d2cA AGcA|AGFA GFDC|D2FD FGGA|AGGc cGAc|
dccf dcdd|dc (3AGF GFDC|D2 FD AGFD|1 GFDC D2Ac:|2 GFDC DCA,C||

